src/topics/icons/meanio.svg

<svg height="274" preserveAspectRatio="xMidYMid" viewBox="0 0 256 274" width="256" xmlns="http://www.w3.org/2000/svg"><path d="m0 44.3 20.1 174 107.9 55.4 108.1-55.3 19.9-174.3s-67.4-44.1-127.9-44.1-128.1 44.3-128.1 44.3z" fill="#007d96"/><path d="m8.3 49.4 18.8 159.5 101 50.8 101.1-50.7 18.6-159.7s-63.1-40.4-119.7-40.4-119.8 40.5-119.8 40.5z" fill="#fff"/><path d="m14.9 54 17.8 149.6 95.4 47.6 95.5-47.5 17.5-149.8s-59.6-37.9-113.1-37.9-113.1 38-113.1 38z" fill="#007d96"/><path d="m57.5 200.7v-147.8l35.3-.2 35.2 92.9 38.1-92.4 34.8-.3v147.8h-28.7l1.5-103.8-45.7 103.8-44.1-103.6 2.3 103.6z" fill="#fff"/><path d="m128.1 0c-60.6 0-128.1 44.3-128.1 44.3l20.1 174 107.9 55.4v-273.7z" opacity=".1"/></svg>

<?xml version="1.0" encoding="UTF-8" standalone="no"?>
<svg width="256px" height="274px" viewBox="0 0 256 274" version="1.1" xmlns="http://www.w3.org/2000/svg" xmlns:xlink="http://www.w3.org/1999/xlink" preserveAspectRatio="xMidYMid">
            <g>
                <path d="M0,44.3 L20.1,218.3 L128,273.7 L236.1,218.4 L256,44.1 C256,44.1 188.6,0 128.1,0 C67.6,0 0,44.3 0,44.3 L0,44.3 Z" fill="#007D96"></path>
                <path d="M8.3,49.4 L27.1,208.9 L128.1,259.7 L229.2,209 L247.8,49.3 C247.8,49.3 184.7,8.9 128.1,8.9 C71.5,8.9 8.3,49.4 8.3,49.4 L8.3,49.4 Z" fill="#FFFFFF"></path>
                <path d="M14.9,54 L32.7,203.6 L128.1,251.2 L223.6,203.7 L241.1,53.9 C241.1,53.9 181.5,16 128,16 C74.5,16 14.9,54 14.9,54 L14.9,54 Z" fill="#007D96"></path>
                <path d="M57.5,200.7 L57.5,52.9 L92.8,52.7 L128,145.6 L166.1,53.2 L200.9,52.9 L200.9,200.7 L172.2,200.7 L173.7,96.9 L128,200.7 L83.9,97.1 L86.2,200.7 L57.5,200.7 Z" fill="#FFFFFF"></path>
                <path d="M128.1,0 C67.5,0 0,44.3 0,44.3 L20.1,218.3 L128,273.7 L128,0 L128.1,0 Z" opacity="0.1" fill="#000000"></path>
            </g>
</svg>
